src/pos-icons/trumpet.svg

<svg height="24" viewBox="0 0 24 24" width="24" xmlns="http://www.w3.org/2000/svg"><path d="m22 6c-1 5-7 5-7 5h-11c-1 0-2-1-2-1h-1v4h1s1-1 2-1h.3c-.2.3-.3.6-.3 1v2c0 1.1.9 2 2 2h1v1h2v-1h1v1h2v-1h1v1h2v-1h1c1.1 0 2-.9 2-2v-2c0-.1 0-.3-.1-.4 1.7.6 3.5 1.8 4.1 4.4h1v-12zm-16 10.5c-.3 0-.5-.2-.5-.5v-2c0-.3.2-.5.5-.5h1v3zm3 0v-3h1v3zm3 0v-3h1v3zm4.5-.5c0 .3-.2.5-.5.5h-1v-3h1c.3 0 .5.2.5.5zm-7.5-6h-2v-1h2zm3 0h-2v-1h2zm3 0h-2v-1h2z"/></svg>

<?xml version="1.0" encoding="UTF-8"?><!DOCTYPE svg PUBLIC "-//W3C//DTD SVG 1.1//EN" "http://www.w3.org/Graphics/SVG/1.1/DTD/svg11.dtd"><svg xmlns="http://www.w3.org/2000/svg" xmlns:xlink="http://www.w3.org/1999/xlink" version="1.1" id="mdi-trumpet" width="24" height="24" viewBox="0 0 24 24"><path d="M22 6C21 11 15 11 15 11H4C3 11 2 10 2 10H1V14H2C2 14 3 13 4 13H4.3C4.1 13.3 4 13.6 4 14V16C4 17.1 4.9 18 6 18H7V19H9V18H10V19H12V18H13V19H15V18H16C17.1 18 18 17.1 18 16V14C18 13.9 18 13.7 17.9 13.6C19.6 14.2 21.4 15.4 22 18H23V6H22M6 16.5C5.7 16.5 5.5 16.3 5.5 16V14C5.5 13.7 5.7 13.5 6 13.5H7V16.5H6M9 16.5V13.5H10V16.5H9M12 16.5V13.5H13V16.5H12M16.5 16C16.5 16.3 16.3 16.5 16 16.5H15V13.5H16C16.3 13.5 16.5 13.7 16.5 14V16M9 10H7V9H9V10M12 10H10V9H12V10M15 10H13V9H15V10Z" /></svg>
